modules/open-iconic/icons/bar-chart.svg

<svg xmlns="http://www.w3.org/2000/svg" width="8" height="8" viewBox="0 0 8 8">
  <path d="M0 0v7h8v-1h-7v-6h-1zm5 0v5h2v-5h-2zm-3 2v3h2v-3h-2z" />
</svg>

<svg xmlns="http://www.w3.org/2000/svg" width="8" height="8"><path d="M0 0v7h8V6H1V0H0zm5 0v5h2V0H5zM2 2v3h2V2H2z"/></svg>
